src/standard/home.svg

<svg xmlns="http://www.w3.org/2000/svg" viewBox="0 0 36 36">
  <path d="M5.3 12.55 6.38 12v3a.62.62 0 1 0 1.24 0v-3.7L18 5.71l12.7 6.84a.63.63 0 0 0 .6-1.1l-4.68-2.52V6a.62.62 0 0 0-1.24 0v2.26L18.3 4.45a.64.64 0 0 0-.6 0l-13 7a.63.63 0 0 0 .6 1.1Z"/>
  <path d="M31 30.38h-1.38V14a.62.62 0 0 0-1.24 0v16.38h-1.76V21a.61.61 0 0 0-.62-.62h-6a.61.61 0 0 0-.62.62v9.38H7.62V18.3l7.68-4.13a.63.63 0 0 0-.6-1.11l-10 5.39a.63.63 0 0 0 .6 1.1L6.38 19v11.38H5a.62.62 0 1 0 0 1.24h26a.62.62 0 0 0 0-1.24Zm-10.38 0v-8.76h4.76v8.76Z"/>
  <path d="M10 20.38a.61.61 0 0 0-.62.62v5a.61.61 0 0 0 .62.62h7a.61.61 0 0 0 .62-.62v-5a.61.61 0 0 0-.62-.62Zm6.38 5h-5.76v-3.76h5.76Z"/>
</svg>

<svg id="a867e8d5-46d6-4df0-a521-867c702ed4f2" data-name="Icon" xmlns="http://www.w3.org/2000/svg" viewBox="0 0 36 36">
  <title>Home icon - Black</title>
<desc>house, dwelling, WFH, personal, residence, buildings and industries</desc>
<metadata><?xpacket begin="﻿" id="W5M0MpCehiHzreSzNTczkc9d"?>
<x:xmpmeta xmlns:x="adobe:ns:meta/" x:xmptk="Adobe XMP Core 8.0-c001 1.000000, 0000/00/00-00:00:00        ">
   <rdf:RDF xmlns:rdf="http://www.w3.org/1999/02/22-rdf-syntax-ns#">
      <rdf:Description rdf:about=""
            xmlns:xmp="http://ns.adobe.com/xap/1.0/"
            xmlns:dc="http://purl.org/dc/elements/1.1/"
            xmlns:cq="http://www.day.com/jcr/cq/1.0"
            xmlns:tiff="http://ns.adobe.com/tiff/1.0/">
         <xmp:rhcc-effective-on>2023-12-08T17:47:28.816Z</xmp:rhcc-effective-on>
         <xmp:rhcc-metadata-complete-moderator>pending</xmp:rhcc-metadata-complete-moderator>
         <xmp:rhcc-translation-id>TRA8daf6ced-aadc-41b9-ba5b-f43f16c3ac88</xmp:rhcc-translation-id>
         <xmp:brand-content-type>Icon</xmp:brand-content-type>
         <xmp:CreateDate>2023-12-08T17:47:28.816Z</xmp:CreateDate>
         <xmp:rhcc-effective-on-set-on-upload>true</xmp:rhcc-effective-on-set-on-upload>
         <xmp:rhcc-metadata-complete-uploader>pending</xmp:rhcc-metadata-complete-uploader>
         <xmp:rhcc-file-last-modified>2023-12-08T17:48:03.721Z</xmp:rhcc-file-last-modified>
         <xmp:rhcc-audience>rhcc-audience:internal</xmp:rhcc-audience>
         <xmp:rhcc-rights-restricted>no</xmp:rhcc-rights-restricted>
         <xmp:brand-content-subtype>Icon</xmp:brand-content-subtype>
         <xmp:rhcc-derivative-id>DER8daf6ced-aadc-41b9-ba5b-f43f16c3ac88</xmp:rhcc-derivative-id>
         <xmp:brand-logo-color>Black</xmp:brand-logo-color>
         <xmp:rhcc-notify-portal-subscribers-on-change>yes</xmp:rhcc-notify-portal-subscribers-on-change>
         <dc:format>image/svg+xml</dc:format>
         <dc:modified>2024-02-09T20:24:18.446Z</dc:modified>
         <dc:title>
            <rdf:Alt>
               <rdf:li xml:lang="x-default">Home icon - Black</rdf:li>
            </rdf:Alt>
         </dc:title>
         <dc:description>
            <rdf:Alt>
               <rdf:li xml:lang="x-default">house, dwelling, WFH, personal, residence, buildings and industries</rdf:li>
            </rdf:Alt>
         </dc:description>
         <cq:lastReplicationAction_scene7>Activate</cq:lastReplicationAction_scene7>
         <cq:lastReplicationAction_publish>Activate</cq:lastReplicationAction_publish>
         <cq:lastReplicated_publish>2024-02-09T22:06:38.138Z</cq:lastReplicated_publish>
         <cq:lastReplicatedBy>workflow-process-service</cq:lastReplicatedBy>
         <cq:lastReplicationAction>Activate</cq:lastReplicationAction>
         <cq:lastReplicatedBy_publish>workflow-process-service</cq:lastReplicatedBy_publish>
         <cq:isDelivered>true</cq:isDelivered>
         <cq:lastReplicated>2024-02-09T22:06:38.138Z</cq:lastReplicated>
         <cq:lastReplicatedBy_scene7>workflow-process-service</cq:lastReplicatedBy_scene7>
         <cq:lastReplicated_scene7>2024-02-09T22:06:38.138Z</cq:lastReplicated_scene7>
         <tiff:ImageLength>36</tiff:ImageLength>
         <tiff:ImageWidth>36</tiff:ImageWidth>
      </rdf:Description>
   </rdf:RDF>
</x:xmpmeta>
                                                                                                    
                                                                                                    
                                                                                                    
                                                                                                    
                                                                                                    
                                                                                                    
                                                                                                    
                                                                                                    
                                                                                                    
                                                                                                    
                                 
<?xpacket end="w"?></metadata>
<g>
    <path d="M5.3,12.55,6.38,12v3a.62.62,0,1,0,1.24,0V11.3L18,5.71l12.7,6.84a.63.63,0,0,0,.6-1.1L26.62,8.93V6a.62.62,0,0,0-1.24,0V8.26L18.3,4.45a.64.64,0,0,0-.6,0l-13,7a.63.63,0,0,0,.6,1.1Z"/>
    <path d="M31,30.38H29.62V14a.62.62,0,0,0-1.24,0V30.38H26.62V21a.61.61,0,0,0-.62-.62H20a.61.61,0,0,0-.62.62v9.38H7.62V18.3l7.68-4.13a.63.63,0,0,0-.6-1.11l-10,5.39a.63.63,0,0,0,.6,1.1L6.38,19V30.38H5a.62.62,0,1,0,0,1.24H31a.62.62,0,0,0,0-1.24Zm-10.38,0V21.62h4.76v8.76Z"/>
    <path d="M10,20.38a.61.61,0,0,0-.62.62v5a.61.61,0,0,0,.62.62h7a.61.61,0,0,0,.62-.62V21a.61.61,0,0,0-.62-.62Zm6.38,5H10.62V21.62h5.76Z"/>
  </g>
</svg>
